X:6032
T:Sideways Glance - schottische/schottisch/scottish
O:england
C:Paul James
B: "Encyclopædia Blowzabellica", Dragonfly music, Newbiggin by the Sea, 1987
N:please mail errors to: simon.wascher@chello.at
M:2/4
L:1/16
K:G dorian
z2|d3f c2B2|A6AB|cBAG ^FD=EF|G^FGA BABc|
d3f c2B2|A6AB|cBAG ^FD=EF|G6:|
K:G
|:cB|DEFG ABcd|B4B2GB|cBAG FDEF|GFGA BAGF|
DEFG ABcd|1B4B2GB|cBAG FGAF|c6:|2B4B2A_B|c_BAG =FGA^F|c6|]


